view/frontend/web/svg/flags/tw.svg

<svg width="24" height="24" viewbox="0 0 20 15" viewBox="0 0 20 15" fill="none" xmlns="http://www.w3.org/2000/svg">
<g clip-path="url(#clip0_270_60790)">
<rect width="20" height="15" fill="white"/>
<path fill-rule="evenodd" clip-rule="evenodd" d="M0 0V15H20V0H0Z" fill="#EF0000"/>
<mask id="mask0_270_60790" style="mask-type:luminance" maskUnits="userSpaceOnUse" x="0" y="0" width="20" height="15">
<path fill-rule="evenodd" clip-rule="evenodd" d="M0 0V15H20V0H0Z" fill="white"/>
</mask>
<g mask="url(#mask0_270_60790)">
<path fill-rule="evenodd" clip-rule="evenodd" d="M0 0V8.75H11.25V0H0Z" fill="#2E42A5"/>
<path fill-rule="evenodd" clip-rule="evenodd" d="M5.45602 6.75672L4.52998 7.91204L4.30567 6.44848L2.92604 6.986L3.46355 5.60637L2 5.38206L3.15532 4.45602L2 3.52998L3.46355 3.30567L2.92604 1.92604L4.30567 2.46355L4.52998 1L5.45602 2.15532L6.38206 1L6.60637 2.46355L7.986 1.92604L7.44848 3.30567L8.91204 3.52998L7.75672 4.45602L8.91204 5.38206L7.44848 5.60637L7.986 6.986L6.60637 6.44848L6.38206 7.91204L5.45602 6.75672ZM5.45602 6.24498C6.44404 6.24498 7.24498 5.44404 7.24498 4.45602C7.24498 3.468 6.44404 2.66705 5.45602 2.66705C4.468 2.66705 3.66705 3.468 3.66705 4.45602C3.66705 5.44404 4.468 6.24498 5.45602 6.24498ZM6.88719 4.45602C6.88719 5.24643 6.24643 5.88719 5.45602 5.88719C4.6656 5.88719 4.02484 5.24643 4.02484 4.45602C4.02484 3.6656 4.6656 3.02484 5.45602 3.02484C6.24643 3.02484 6.88719 3.6656 6.88719 4.45602Z" fill="#FEFFFF"/>
</g>
</g>
<defs>
<clipPath id="clip0_270_60790">
<rect width="20" height="15" fill="white"/>
</clipPath>
</defs>
</svg>

<svg width="24" height="24" viewbox="0 0 20 15" fill="none" xmlns="http://www.w3.org/2000/svg">
  <mask id="a" maskUnits="userSpaceOnUse" x="0" y="0" width="20" height="15">
    <path fill="#fff" d="M0 0h20v15H0z"/>
  </mask>
  <g mask="url(#a)">
    <path fill-rule="evenodd" clip-rule="evenodd" d="M0 0v15h20V0H0z" fill="#EF0000"/>
    <mask id="b" maskUnits="userSpaceOnUse" x="0" y="0" width="20" height="15">
      <path fill-rule="evenodd" clip-rule="evenodd" d="M0 0v15h20V0H0z" fill="#fff"/>
    </mask>
    <g mask="url(#b)" fill-rule="evenodd" clip-rule="evenodd">
      <path d="M0 0v8.75h11.25V0H0z" fill="#2E42A5"/>
      <path d="M5.456 6.757L4.53 7.912l-.224-1.464-1.38.538.538-1.38L2 5.382l1.155-.926L2 3.53l1.464-.224-.538-1.38 1.38.538L4.53 1l.926 1.155L6.382 1l.224 1.464 1.38-.538-.538 1.38 1.464.224-1.155.926 1.155.926-1.464.224.538 1.38-1.38-.538-.224 1.464-.926-1.155zm0-.512a1.789 1.789 0 100-3.578 1.789 1.789 0 000 3.578zm1.431-1.789a1.431 1.431 0 11-2.862 0 1.431 1.431 0 012.862 0z" fill="#FEFFFF"/>
    </g>
  </g>
</svg>
